X:805
T:McGoldrick's
R:reel
H:Also played with doubled parts
Z:id:hn-reel-805
M:C|
L:1/8
K:D
d2Ad cdAd | (3Bcd ef gefe | d2Ad cdAF | GEEF GABc |
d2Ad cdAd | (3Bcd ef g2fg | afge fdec | dAAF GABc ||
d2fd Adfd | d2fa gece | d2fd Adfd | ceAc eAce |
d2fd Adfd | (3Bcd ef g2fg | agfe fdec | dAAF GABc ||
P:variations
|: d2Ad cdAd | cdef gefe | d2Ad cdAF | GEEF GABc |
d2Ad cdAd | cdef g2fg | (3agf ge fded | cAAF GABc :|
|: d2fd adfd | defa gece | d2fd adfd | cA~A2 cdec |
d2fd adfd | cdef g2fg | (3agf ge fded | cAAF GABc :|

